;FLAVOR:Marlin
;TIME:2566
;Filament used: 1.65598m
;Layer height: 0.15
;MINX:69.794
;MINY:19.862
;MINZ:0.2
;MAXX:180.207
;MAXY:190.152
;MAXZ:0.8
;Generated with Cura_SteamEngine 4.5.0
M82 ;absolute extrusion mode
G21 ; set units to millimeters
G90 ; use absolute positioning
M82 ; absolute extrusion mode
M104 S200 ; set extruder temp
M140 S60 ; set bed temp
M190 S60 ; wait for bed temp
M109 S200 ; wait for extruder temp
G28 W ; home all without mesh bed level
G80 ; mesh bed leveling
G92 E0.0 ; reset extruder distance position
G1 Y-3.0 F1000.0 ; go outside print area
G1 X60.0 E9.0 F1000.0 ; intro line
G1 X100.0 E21.5 F1000.0 ; intro line
G92 E0.0 ; reset extruder distance position
G92 E0
G92 E0
G1 F2100 E-0.8
;LAYER_COUNT:5
;LAYER:0
M107
G0 F3600 X94.752 Y49.367 Z0.2
;TYPE:SKIRT
G1 F2100 E0
G1 F1800 X95.048 Y48.818 E0.02074
G1 X95.493 Y48.092 E0.04907
G1 X95.844 Y47.583 E0.06963
G1 X96.391 Y46.879 E0.09928
G1 X96.799 Y46.412 E0.11991
G1 X97.401 Y45.795 E0.14858
G1 X97.859 Y45.375 E0.16925
G1 X98.528 Y44.827 E0.19801
G1 X99.03 Y44.46 E0.21869
G1 X99.762 Y43.985 E0.24772
G1 X100.299 Y43.678 E0.26829
G1 X101.084 Y43.287 E0.29746
G1 X101.655 Y43.041 E0.31814
G1 X102.489 Y42.736 E0.34767
G1 X103.086 Y42.556 E0.36841
G1 X103.936 Y42.351 E0.3975
G1 X104.549 Y42.239 E0.41822
G1 X105.393 Y42.132 E0.44652
G1 X106.02 Y42.087 E0.46743
G1 X106.184 Y42.085 E0.47288
G1 X106.184 Y39.194 E0.56904
G1 X106.241 Y37.823 E0.61467
G1 X106.302 Y37.159 E0.63685
G1 X106.451 Y36.052 E0.674
G1 X106.59 Y35.297 E0.69954
G1 X106.847 Y34.21 E0.73669
G1 X107.051 Y33.501 E0.76123
G1 X107.409 Y32.445 E0.79831
G1 X107.692 Y31.729 E0.82392
G1 X108.153 Y30.712 E0.86106
G1 X108.493 Y30.047 E0.8859
G1 X109.049 Y29.079 E0.92303
G1 X109.456 Y28.444 E0.94811
G1 X110.103 Y27.534 E0.98525
G1 X110.573 Y26.936 E1.01055
G1 X111.305 Y26.094 E1.04766
G1 X111.822 Y25.555 E1.0725
G1 X112.632 Y24.786 E1.10964
G1 X113.196 Y24.299 E1.13443
G1 X114.073 Y23.613 E1.17146
G1 X114.699 Y23.172 E1.19693
G1 X115.641 Y22.574 E1.23404
G1 X116.294 Y22.202 E1.25904
G1 X117.29 Y21.697 E1.29618
G1 X117.973 Y21.391 E1.32107
G1 X119.015 Y20.983 E1.35829
G1 X119.722 Y20.745 E1.3831
G1 X120.796 Y20.439 E1.42025
G1 X121.556 Y20.263 E1.44619
G1 X122.654 Y20.066 E1.48329
G1 X123.386 Y19.97 E1.50785
G1 X124.506 Y19.877 E1.54523
G1 X125.575 Y19.862 E1.58079
G1 X126.696 Y19.923 E1.61813
G1 X127.489 Y20.006 E1.64465
G1 X128.591 Y20.18 E1.68175
G1 X129.345 Y20.338 E1.70738
G1 X130.425 Y20.62 E1.7445
G1 X131.137 Y20.843 E1.76932
G1 X132.188 Y21.228 E1.80655
G1 X132.875 Y21.518 E1.83135
G1 X133.881 Y22 E1.86845
G1 X134.551 Y22.362 E1.89378
G1 X135.504 Y22.939 E1.93083
G1 X136.134 Y23.363 E1.95609
G1 X137.029 Y24.032 E1.99325
G1 X137.602 Y24.505 E2.01797
G1 X138.427 Y25.254 E2.05503
G1 X138.959 Y25.786 E2.08005
G1 X139.709 Y26.612 E2.11716
G1 X140.188 Y27.194 E2.14223
G1 X140.855 Y28.089 E2.17936
G1 X141.282 Y28.725 E2.20483
G1 X141.858 Y29.681 E2.24196
G1 X142.211 Y30.336 E2.2667
G1 X142.693 Y31.342 E2.30381
G1 X142.988 Y32.041 E2.32904
G1 X143.371 Y33.092 E2.36625
G1 X143.591 Y33.801 E2.39094
G1 X143.872 Y34.882 E2.42809
G1 X144.028 Y35.632 E2.45356
G1 X144.201 Y36.732 E2.4906
G1 X144.282 Y37.472 E2.51536
G1 X144.35 Y38.594 E2.55275
G1 X144.364 Y42.082 E2.66876
G1 X145.663 Y42.187 E2.7121
G1 X146.279 Y42.283 E2.73284
G1 X147.149 Y42.47 E2.76244
G1 X147.748 Y42.635 E2.7831
G1 X148.587 Y42.918 E2.81255
G1 X149.164 Y43.15 E2.83324
G1 X149.95 Y43.519 E2.86212
G1 X150.5 Y43.815 E2.88289
G1 X151.238 Y44.266 E2.91166
G1 X151.746 Y44.617 E2.93219
G1 X152.438 Y45.155 E2.96135
G1 X152.906 Y45.563 E2.982
G1 X153.529 Y46.17 E3.01093
G1 X153.949 Y46.628 E3.0316
G1 X154.494 Y47.293 E3.06019
G1 X154.86 Y47.793 E3.0808
G1 X155.344 Y48.54 E3.11041
G1 X155.651 Y49.079 E3.13104
G1 X156.036 Y49.853 E3.15979
G1 X156.282 Y50.424 E3.18047
G1 X156.587 Y51.258 E3.21001
G1 X156.767 Y51.855 E3.23074
G1 X156.97 Y52.693 E3.25942
G1 X157.083 Y53.306 E3.28015
G1 X157.193 Y54.172 E3.30919
G1 X157.237 Y54.797 E3.33003
G1 X157.256 Y55.344 E3.34823
G1 X157.261 Y103.201 E4.93996
G1 X157.206 Y104.446 E4.98141
G1 X157.135 Y105.164 E5.00541
G1 X157 Y106.087 E5.03644
G1 X156.836 Y106.901 E5.06405
G1 X156.605 Y107.799 E5.09489
G1 X156.364 Y108.57 E5.12176
G1 X156.04 Y109.443 E5.15273
G1 X155.709 Y110.207 E5.18042
G1 X155.296 Y111.036 E5.21123
G1 X154.907 Y111.727 E5.2376
G1 X154.41 Y112.513 E5.26853
G1 X153.933 Y113.185 E5.29594
G1 X153.36 Y113.909 E5.32665
G1 X152.83 Y114.512 E5.35335
G1 X152.182 Y115.177 E5.38424
G1 X151.577 Y115.735 E5.41161
G1 X150.866 Y116.325 E5.44234
G1 X150.21 Y116.814 E5.46955
G1 X149.437 Y117.329 E5.50045
G1 X148.751 Y117.737 E5.52699
G1 X147.932 Y118.169 E5.55779
G1 X147.177 Y118.517 E5.58544
G1 X146.31 Y118.862 E5.61648
G1 X146.088 Y118.938 E5.62428
G1 X146.724 Y118.988 E5.6455
G1 X147.412 Y119.057 E5.6685
G1 X148.399 Y119.192 E5.70163
G1 X149.486 Y119.399 E5.73844
G1 X150.044 Y119.534 E5.75753
G1 X150.603 Y119.691 E5.77684
G1 X151.282 Y119.915 E5.80062
G1 X151.781 Y120.106 E5.81839
G1 X152.499 Y120.424 E5.84451
G1 X152.96 Y120.656 E5.86168
G1 X153.82 Y121.159 E5.89481
G1 X154.353 Y121.519 E5.91621
G1 X155.093 Y122.087 E5.94723
G1 X155.496 Y122.436 E5.96497
G1 X155.956 Y122.867 E5.98593
G1 X156.39 Y123.309 E6.00653
G1 X156.497 Y123.424 E6.01176
G1 X157.771 Y122.632 E6.06165
G1 X158.267 Y122.383 E6.08011
G1 X159.125 Y122.015 E6.11116
G1 X159.6 Y121.844 E6.12795
G1 X160.315 Y121.625 E6.15283
G1 X160.817 Y121.497 E6.17006
G1 X161.464 Y121.361 E6.19205
G1 X162.065 Y121.261 E6.21231
G1 X162.626 Y121.188 E6.23113
G1 X163.285 Y121.127 E6.25314
G1 X164.432 Y121.077 E6.29132
G1 X165.558 Y121.097 E6.32878
G1 X166.192 Y121.143 E6.34992
G1 X166.766 Y121.208 E6.36914
G1 X167.481 Y121.322 E6.39322
G1 X167.989 Y121.428 E6.41048
G1 X168.731 Y121.622 E6.43599
G1 X169.209 Y121.772 E6.45265
G1 X170.122 Y122.123 E6.48518
G1 X170.611 Y122.347 E6.50307
G1 X171.312 Y122.711 E6.52934
G1 X172.078 Y123.203 E6.55962
G1 X172.715 Y123.67 E6.58589
G1 X173.836 Y123.902 E6.62397
G1 X174.904 Y124.255 E6.66138
G1 X175.619 Y124.588 E6.68761
G1 X176.298 Y124.993 E6.71391
G1 X177.167 Y125.665 E6.75045
G1 X177.953 Y126.42 E6.7867
G1 X178.455 Y127.029 E6.81295
G1 X178.894 Y127.686 E6.83923
G1 X179.364 Y128.608 E6.87365
G1 X179.789 Y129.701 E6.91265
G1 X179.987 Y130.465 E6.9389
G1 X180.1 Y131.18 E6.96298
G1 X180.16 Y131.724 E6.98118
G1 X180.207 Y132.512 E7.00744
G1 X180.172 Y133.314 E7.03414
G1 X180.124 Y133.821 E7.05108
G1 X180.01 Y134.603 E7.07736
G1 X179.831 Y135.323 E7.10204
G1 X179.687 Y135.804 E7.11874
G1 X179.423 Y136.548 E7.14499
G1 X179.084 Y137.262 E7.17128
G1 X178.819 Y137.717 E7.1888
G1 X178.205 Y138.628 E7.22533
G1 X178.51 Y139.183 E7.2464
G1 X178.818 Y139.91 E7.27266
G1 X179.051 Y140.665 E7.29894
G1 X179.207 Y141.439 E7.3252
G1 X179.284 Y142.225 E7.35147
G1 X179.28 Y143.015 E7.37774
G1 X179.197 Y143.8 E7.404
G1 X179.035 Y144.573 E7.43027
G1 X178.895 Y145.127 E7.44927
G1 X178.669 Y145.883 E7.47552
G1 X178.367 Y146.613 E7.50179
G1 X177.994 Y147.309 E7.52806
G1 X177.552 Y147.964 E7.55434
G1 X177.046 Y148.57 E7.58059
G1 X176.482 Y149.122 E7.60684
G1 X175.864 Y149.614 E7.63312
G1 X175.2 Y150.042 E7.65939
G1 X174.775 Y150.258 E7.67525
G1 X174.909 Y151.006 E7.70052
G1 X174.96 Y151.583 E7.71979
G1 X174.988 Y152.872 E7.76267
G1 X174.854 Y153.974 E7.79959
G1 X174.742 Y154.551 E7.81914
G1 X174.553 Y155.318 E7.84542
G1 X174.228 Y156.198 E7.87662
G1 X173.996 Y156.727 E7.89583
G1 X173.643 Y157.433 E7.92208
G1 X173.22 Y158.1 E7.94835
G1 X172.894 Y158.528 E7.96625
G1 X172.083 Y159.458 E8.00729
G1 X171.497 Y159.987 E8.03355
G1 X170.973 Y160.378 E8.05529
G1 X169.961 Y161.021 E8.09517
G1 X169.25 Y161.363 E8.12141
G1 X168.616 Y161.596 E8.14388
G1 X168.139 Y161.749 E8.16054
G1 X167.376 Y161.952 E8.1868
G1 X166.294 Y162.104 E8.22314
G1 X165.743 Y162.142 E8.24151
G1 X164.953 Y162.156 E8.26779
G1 X163.901 Y162.071 E8.30289
G1 X163.132 Y161.96 E8.32873
G1 X162.577 Y161.851 E8.34755
G1 X161.632 Y161.622 E8.37989
G1 X160.806 Y161.38 E8.40852
G1 X160.79 Y162.124 E8.43327
G1 X160.694 Y162.908 E8.45954
G1 X160.519 Y163.678 E8.4858
G1 X160.267 Y164.426 E8.51205
G1 X159.941 Y165.145 E8.53831
G1 X159.544 Y165.828 E8.56459
G1 X159.079 Y166.466 E8.59084
G1 X158.553 Y167.055 E8.61711
G1 X157.969 Y167.587 E8.64338
G1 X157.335 Y168.058 E8.66965
G1 X156.288 Y168.74 E8.71121
G1 X155.575 Y169.079 E8.73747
G1 X154.831 Y169.344 E8.76374
G1 X154.064 Y169.533 E8.79001
G1 X153.282 Y169.643 E8.81628
G1 X153.197 Y169.646 E8.81911
G1 X152.967 Y170.237 E8.8402
G1 X152.608 Y170.94 E8.86645
G1 X152.18 Y171.604 E8.89273
G1 X151.42 Y172.508 E8.93201
G1 X150.694 Y173.191 E8.96516
G1 X150.062 Y173.665 E8.99144
G1 X149.386 Y174.073 E9.0177
G1 X148.672 Y174.41 E9.04396
G1 X148.106 Y174.611 E9.06394
G1 X147.733 Y175.387 E9.09257
G1 X147.317 Y176.059 E9.11886
G1 X146.836 Y176.685 E9.14512
G1 X146.294 Y177.259 E9.17138
G1 X145.697 Y177.776 E9.19764
G1 X145.05 Y178.229 E9.22391
G1 X144.361 Y178.615 E9.25018
G1 X143.41 Y179.01 E9.28443
G1 X142.291 Y179.348 E9.32331
G1 X141.144 Y179.524 E9.3619
G1 X140.589 Y179.567 E9.38042
G1 X139.639 Y179.582 E9.41202
G1 X139.122 Y179.559 E9.42923
G1 X138.765 Y179.527 E9.44115
G1 X138.124 Y180.349 E9.47582
G1 X137.642 Y180.845 E9.49883
G1 X137.219 Y181.244 E9.51817
G1 X136.532 Y181.821 E9.54801
G1 X136.122 Y182.127 E9.56502
G1 X135.591 Y182.49 E9.58642
G1 X135.127 Y182.78 E9.60462
G1 X134.695 Y183.032 E9.62125
G1 X134.12 Y183.342 E9.64298
G1 X133.114 Y183.823 E9.68007
G1 X132.662 Y184.017 E9.69643
G1 X132.427 Y184.747 E9.72193
G1 X132.147 Y185.486 E9.74822
G1 X131.794 Y186.193 E9.7745
G1 X131.372 Y186.86 E9.80075
G1 X130.884 Y187.481 E9.82702
G1 X130.337 Y188.05 E9.85327
G1 X129.734 Y188.56 E9.87954
G1 X129.083 Y189.007 E9.9058
G1 X128.39 Y189.385 E9.93206
G1 X127.662 Y189.692 E9.95834
G1 X126.907 Y189.924 E9.98461
G1 X126.133 Y190.077 E10.01085
G1 X125.346 Y190.152 E10.03714
G1 X124.557 Y190.147 E10.06339
G1 X123.772 Y190.063 E10.08964
G1 X122.999 Y189.899 E10.11593
G1 X122.247 Y189.658 E10.14219
G1 X121.523 Y189.342 E10.16847
G1 X120.835 Y188.954 E10.19474
G1 X120.19 Y188.499 E10.22099
G1 X119.594 Y187.981 E10.24725
G1 X119.053 Y187.406 E10.27351
G1 X118.573 Y186.779 E10.29978
G1 X118.159 Y186.106 E10.32606
G1 X117.816 Y185.395 E10.35231
G1 X117.576 Y184.75 E10.3752
G1 X117.34 Y184.017 E10.40081
G1 X116.735 Y183.755 E10.42274
G1 X115.75 Y183.275 E10.45919
G1 X115.29 Y183.025 E10.4766
G1 X114.761 Y182.714 E10.49701
G1 X114.244 Y182.382 E10.51745
G1 X113.805 Y182.075 E10.53526
G1 X113.149 Y181.562 E10.56296
G1 X112.681 Y181.154 E10.58361
G1 X112.113 Y180.606 E10.60986
G1 X111.777 Y180.223 E10.62681
G1 X111.443 Y179.816 E10.64432
G1 X111.231 Y179.53 E10.65616
G1 X110.441 Y179.579 E10.68249
G1 X109.901 Y179.585 E10.70045
G1 X109.112 Y179.553 E10.72671
G1 X108.205 Y179.434 E10.75714
G1 X107.43 Y179.282 E10.78341
G1 X106.674 Y179.053 E10.80968
G1 X105.945 Y178.749 E10.83595
G1 X104.994 Y178.249 E10.87168
G1 X104.341 Y177.804 E10.89797
G1 X103.737 Y177.296 E10.92422
G1 X103.187 Y176.729 E10.95049
G1 X102.698 Y176.109 E10.97675
G1 X102.273 Y175.443 E11.00303
G1 X101.918 Y174.738 E11.02928
G1 X101.866 Y174.602 E11.03413
G1 X100.869 Y174.198 E11.06991
G1 X100.176 Y173.819 E11.09618
G1 X99.525 Y173.372 E11.12244
G1 X98.922 Y172.862 E11.14871
G1 X98.374 Y172.293 E11.17498
G1 X98.052 Y171.898 E11.19193
G1 X97.491 Y171.095 E11.22451
G1 X97.113 Y170.402 E11.25077
G1 X96.843 Y169.76 E11.27393
G1 X95.762 Y169.672 E11.31001
G1 X94.99 Y169.508 E11.33626
G1 X94.238 Y169.266 E11.36253
G1 X93.514 Y168.95 E11.38881
G1 X92.827 Y168.562 E11.41505
G1 X92.182 Y168.106 E11.44132
G1 X91.586 Y167.588 E11.46758
G1 X91.046 Y167.012 E11.49384
G1 X90.567 Y166.384 E11.52011
G1 X90.153 Y165.711 E11.54639
G1 X89.681 Y164.674 E11.58429
G1 X89.354 Y163.672 E11.61935
G1 X89.195 Y162.898 E11.64563
G1 X89.116 Y162.112 E11.6719
G1 X89.116 Y161.404 E11.69545
G1 X88.465 Y161.593 E11.718
G1 X87.692 Y161.79 E11.74453
G1 X86.664 Y161.992 E11.77937
G1 X85.869 Y162.095 E11.80604
G1 X85.311 Y162.138 E11.82465
G1 X84.522 Y162.159 E11.8509
G1 X83.97 Y162.126 E11.86929
G1 X83.436 Y162.075 E11.88714
G1 X82.655 Y161.96 E11.91339
G1 X81.889 Y161.767 E11.93967
G1 X81.018 Y161.46 E11.97038
G1 X80.292 Y161.151 E11.99662
G1 X79.6 Y160.77 E12.0229
G1 X78.98 Y160.345 E12.0479
G1 X78.055 Y159.592 E12.08757
G1 X77.506 Y159.024 E12.11384
G1 X77.156 Y158.594 E12.13229
G1 X76.45 Y157.593 E12.17303
G1 X76.074 Y156.898 E12.19931
G1 X75.679 Y155.962 E12.2331
G1 X75.418 Y155.217 E12.25935
G1 X75.226 Y154.401 E12.28723
G1 X75.126 Y153.846 E12.30599
G1 X75.025 Y153.063 E12.33225
G1 X75.009 Y152.124 E12.36349
G1 X75.103 Y150.901 E12.40428
G1 X75.201 Y150.407 E12.42103
G1 X74.358 Y150.016 E12.45194
G1 X73.685 Y149.603 E12.4782
G1 X73.057 Y149.123 E12.50449
G1 X72.481 Y148.583 E12.53075
G1 X71.963 Y147.988 E12.55699
G1 X71.507 Y147.343 E12.58327
G1 X71.119 Y146.655 E12.60954
G1 X70.803 Y145.931 E12.63581
G1 X70.561 Y145.18 E12.66205
G1 X70.397 Y144.407 E12.68834
G1 X70.311 Y143.622 E12.7146
G1 X70.296 Y142.817 E12.74138
G1 X70.332 Y142.028 E12.76765
G1 X70.448 Y141.247 E12.79391
G1 X70.642 Y140.481 E12.82019
G1 X70.912 Y139.739 E12.84645
G1 X71.256 Y139.028 E12.87273
G1 X71.643 Y138.4 E12.89726
G1 X71.318 Y137.938 E12.91605
G1 X70.912 Y137.261 E12.9423
G1 X70.577 Y136.546 E12.96857
G1 X70.344 Y135.896 E12.99153
G1 X70.196 Y135.417 E13.00821
G1 X70.001 Y134.651 E13.0345
G1 X69.888 Y133.9 E13.05976
G1 X69.834 Y133.367 E13.07757
G1 X69.794 Y132.579 E13.10382
G1 X69.827 Y131.864 E13.12762
G1 X69.873 Y131.366 E13.14426
G1 X69.985 Y130.584 E13.17053
G1 X70.176 Y129.818 E13.19679
G1 X70.411 Y129.155 E13.22018
G1 X70.904 Y128.044 E13.26061
G1 X71.308 Y127.365 E13.28689
G1 X71.778 Y126.731 E13.31314
G1 X72.563 Y125.907 E13.35099
G1 X73.398 Y125.205 E13.38727
G1 X74.057 Y124.77 E13.41354
G1 X74.756 Y124.403 E13.4398
G1 X75.844 Y123.996 E13.47843
G1 X76.943 Y123.719 E13.51613
G1 X77.3 Y123.672 E13.5281
G1 X78.06 Y123.113 E13.55948
G1 X78.563 Y122.796 E13.57926
G1 X79.602 Y122.246 E13.61836
G1 X80.074 Y122.04 E13.63549
G1 X81.029 Y121.695 E13.66926
G1 X81.569 Y121.539 E13.68796
G1 X82.336 Y121.359 E13.71416
G1 X82.841 Y121.267 E13.73123
G1 X83.487 Y121.177 E13.75293
G1 X84.024 Y121.125 E13.77087
G1 X84.551 Y121.092 E13.78843
G1 X85.14 Y121.075 E13.80803
G1 X86.243 Y121.096 E13.84472
G1 X87.33 Y121.182 E13.88099
G1 X87.835 Y121.245 E13.89792
G1 X88.379 Y121.331 E13.91623
G1 X88.982 Y121.451 E13.93668
G1 X89.49 Y121.573 E13.95406
G1 X90.208 Y121.782 E13.97893
G1 X90.754 Y121.97 E13.99814
G1 X91.668 Y122.351 E14.03107
G1 X92.14 Y122.584 E14.04858
G1 X93.143 Y123.176 E14.08732
G1 X93.502 Y123.426 E14.10187
G1 X94.015 Y122.896 E14.1264
G1 X94.483 Y122.457 E14.14774
G1 X94.961 Y122.044 E14.16875
G1 X95.749 Y121.446 E14.20166
G1 X96.248 Y121.115 E14.22157
G1 X97.158 Y120.596 E14.25642
G1 X97.715 Y120.326 E14.277
G1 X98.47 Y120.008 E14.30425
G1 X98.944 Y119.837 E14.32101
G1 X99.542 Y119.648 E14.34187
G1 X100.071 Y119.504 E14.36011
G1 X100.61 Y119.378 E14.37852
G1 X101.218 Y119.258 E14.39913
G1 X102.306 Y119.094 E14.43572
G1 X103.063 Y119.01 E14.46106
G1 X104.367 Y118.902 E14.50458
G1 X103.739 Y118.669 E14.52685
G1 X102.98 Y118.34 E14.55437
G1 X102.15 Y117.927 E14.5852
G1 X101.449 Y117.532 E14.61197
G1 X100.665 Y117.035 E14.64284
G1 X99.999 Y116.562 E14.67001
G1 X99.274 Y115.988 E14.70076
G1 X98.677 Y115.464 E14.72719
G1 X98.012 Y114.817 E14.75804
G1 X97.448 Y114.206 E14.7857
G1 X96.859 Y113.496 E14.81638
G1 X96.369 Y112.839 E14.84364
G1 X95.853 Y112.064 E14.87461
G1 X95.443 Y111.373 E14.90133
G1 X95.012 Y110.554 E14.93212
G1 X94.667 Y109.804 E14.95957
G1 X94.323 Y108.939 E14.99054
G1 X94.066 Y108.183 E15.01709
G1 X93.813 Y107.29 E15.04796
G1 X93.63 Y106.479 E15.07562
G1 X93.473 Y105.561 E15.10659
G1 X93.378 Y104.753 E15.13365
G1 X93.317 Y103.817 E15.16485
G1 X93.3 Y103.311 E15.18169
G1 X93.293 Y55.419 E16.77458
G1 X93.338 Y54.414 E16.80804
G1 X93.418 Y53.663 E16.83316
G1 X93.514 Y53.046 E16.85393
G1 X93.701 Y52.174 E16.88359
G1 X93.866 Y51.575 E16.90426
G1 X94.149 Y50.736 E16.93371
G1 X94.381 Y50.159 E16.95439
