;FLAVOR:Marlin
;TIME:2770
;Filament used: 2.19128m
;Layer height: 0.15
;MINX:86.649
;MINY:85.446
;MINZ:0.2
;MAXX:163.351
;MAXY:124.554
;MAXZ:15.95
;Generated with Cura_SteamEngine 4.5.0
M82 ;absolute extrusion mode
G21 ; set units to millimeters
G90 ; use absolute positioning
M82 ; absolute extrusion mode
M104 S200 ; set extruder temp
M140 S60 ; set bed temp
M190 S60 ; wait for bed temp
M109 S200 ; wait for extruder temp
G28 W ; home all without mesh bed level
G80 ; mesh bed leveling
G92 E0.0 ; reset extruder distance position
G1 Y-3.0 F1000.0 ; go outside print area
G1 X60.0 E9.0 F1000.0 ; intro line
G1 X100.0 E21.5 F1000.0 ; intro line
G92 E0.0 ; reset extruder distance position
G92 E0
G92 E0
G1 F2100 E-0.8
;LAYER_COUNT:106
;LAYER:0
M107
G0 F3600 X89.353 Y98.694 Z0.2
;TYPE:SKIRT
G1 F2100 E0
G1 F1800 X89.951 Y98.177 E0.02629
G1 X90.597 Y97.724 E0.05253
G1 X91.286 Y97.338 E0.0788
G1 X92.08 Y96.999 E0.10752
G1 X93.066 Y96.683 E0.14195
G1 X93.841 Y96.528 E0.16824
G1 X94.966 Y96.445 E0.20576
G1 X95.606 Y96.444 E0.22705
G1 X97.511 Y96.415 E0.29042
G1 X99.163 Y96.322 E0.34545
G1 X100.665 Y96.163 E0.39568
G1 X102.115 Y95.909 E0.44465
G1 X102.607 Y95.788 E0.4615
G1 X103.135 Y95.629 E0.47984
G1 X103.609 Y95.456 E0.49662
G1 X104.489 Y95.033 E0.52909
G1 X104.941 Y94.763 E0.54661
G1 X105.398 Y94.454 E0.56495
G1 X105.757 Y94.179 E0.58
G1 X108.509 Y91.714 E0.70288
G1 X109.602 Y90.817 E0.7499
G1 X110.827 Y89.929 E0.80023
G1 X112.072 Y89.133 E0.84938
G1 X113.318 Y88.428 E0.89699
G1 X114.588 Y87.792 E0.94423
G1 X115.874 Y87.226 E0.99097
G1 X117.303 Y86.696 E1.04166
G1 X117.782 Y86.541 E1.0584
G1 X118.769 Y86.257 E1.09256
G1 X120.254 Y85.914 E1.14325
G1 X121.749 Y85.665 E1.19366
G1 X123.248 Y85.51 E1.24379
G1 X124.741 Y85.446 E1.29349
G1 X125.243 Y85.446 E1.31019
G1 X126.269 Y85.478 E1.34433
G1 X127.735 Y85.594 E1.39324
G1 X129.247 Y85.807 E1.44402
G1 X129.773 Y85.905 E1.46182
G1 X130.786 Y86.13 E1.49633
G1 X131.272 Y86.254 E1.51302
G1 X132.263 Y86.542 E1.54734
G1 X133.667 Y87.026 E1.59673
G1 X135.042 Y87.593 E1.6462
G1 X136.366 Y88.229 E1.69506
G1 X137.653 Y88.941 E1.74398
G1 X138.894 Y89.722 E1.79275
G1 X140.092 Y90.574 E1.84164
G1 X141.241 Y91.496 E1.89064
G1 X144.28 Y94.201 E2.02596
G1 X145.047 Y94.753 E2.05739
G1 X145.486 Y95.013 E2.07436
G1 X145.94 Y95.245 E2.09132
G1 X146.419 Y95.456 E2.10872
G1 X146.903 Y95.635 E2.12589
G1 X147.425 Y95.794 E2.14404
G1 X149.339 Y96.166 E2.20889
G1 X150.842 Y96.327 E2.25916
G1 X152.486 Y96.415 E2.31392
G1 X155.28 Y96.463 E2.40686
G1 X156.487 Y96.589 E2.44723
G1 X157.258 Y96.763 E2.47352
G1 X158.006 Y97.015 E2.49977
G1 X158.726 Y97.34 E2.52604
G1 X159.408 Y97.737 E2.55229
G1 X159.926 Y98.105 E2.57342
G1 X160.747 Y98.79 E2.60899
G1 X161.291 Y99.363 E2.63526
G1 X161.774 Y99.987 E2.66151
G1 X162.351 Y100.957 E2.69905
G1 X162.814 Y101.974 E2.73621
G1 X163.057 Y102.726 E2.7625
G1 X163.222 Y103.498 E2.78876
G1 X163.291 Y104.051 E2.80729
G1 X163.351 Y105.19 E2.84523
G1 X163.301 Y105.978 E2.87149
G1 X163.104 Y107.039 E2.90738
G1 X162.79 Y108.098 E2.94412
G1 X162.479 Y108.824 E2.97039
G1 X162.096 Y109.515 E2.99667
G1 X161.815 Y109.936 E3.0135
G1 X161.154 Y110.79 E3.04942
G1 X160.602 Y111.355 E3.07569
G1 X159.996 Y111.862 E3.10197
G1 X159.101 Y112.445 E3.1375
G1 X158.191 Y112.906 E3.17143
G1 X157.451 Y113.181 E3.19768
G1 X156.687 Y113.38 E3.22394
G1 X155.907 Y113.501 E3.2502
G1 X155.286 Y113.541 E3.27089
G1 X154.775 Y113.553 E3.28789
G1 X152.487 Y113.584 E3.364
G1 X150.847 Y113.672 E3.41862
G1 X149.341 Y113.833 E3.469
G1 X147.911 Y114.087 E3.51731
G1 X147.425 Y114.206 E3.53395
G1 X146.896 Y114.367 E3.55234
G1 X146.423 Y114.542 E3.56911
G1 X145.936 Y114.756 E3.58681
G1 X145.488 Y114.986 E3.60356
G1 X145.047 Y115.247 E3.6206
G1 X144.275 Y115.802 E3.65222
G1 X141.494 Y118.288 E3.77629
G1 X140.439 Y119.159 E3.82179
G1 X139.243 Y120.04 E3.8712
G1 X138.01 Y120.843 E3.92014
G1 X136.754 Y121.566 E3.96834
G1 X135.432 Y122.229 E4.01753
G1 X134.085 Y122.812 E4.06635
G1 X132.685 Y123.322 E4.1159
G1 X131.262 Y123.749 E4.16532
G1 X130.776 Y123.873 E4.182
G1 X129.764 Y124.097 E4.21647
G1 X129.244 Y124.193 E4.23406
G1 X128.219 Y124.348 E4.26854
G1 X126.705 Y124.496 E4.31914
G1 X125.243 Y124.554 E4.3678
G1 X123.738 Y124.523 E4.41787
G1 X122.251 Y124.404 E4.46749
G1 X121.732 Y124.34 E4.48488
G1 X120.712 Y124.179 E4.51922
G1 X119.214 Y123.859 E4.57017
G1 X117.749 Y123.448 E4.62078
G1 X116.32 Y122.95 E4.67111
G1 X114.924 Y122.362 E4.72149
G1 X113.639 Y121.737 E4.76902
G1 X112.389 Y121.047 E4.81651
G1 X111.177 Y120.295 E4.86395
G1 X109.984 Y119.461 E4.91236
G1 X108.828 Y118.551 E4.96129
G1 X105.757 Y115.822 E5.09794
G1 X104.939 Y115.235 E5.13143
G1 X104.492 Y114.968 E5.14874
G1 X104.035 Y114.731 E5.16587
G1 X103.155 Y114.377 E5.19741
G1 X102.604 Y114.211 E5.21655
G1 X102.112 Y114.091 E5.2334
G1 X100.673 Y113.838 E5.28199
G1 X99.155 Y113.677 E5.33276
G1 X97.513 Y113.586 E5.38746
G1 X95.735 Y113.558 E5.44661
G1 X95.083 Y113.556 E5.46829
G1 X94.099 Y113.491 E5.50109
G1 X93.053 Y113.314 E5.53638
G1 X92.294 Y113.095 E5.56265
G1 X91.561 Y112.8 E5.58893
G1 X90.862 Y112.433 E5.61519
G1 X90.017 Y111.854 E5.64926
G1 X89.212 Y111.171 E5.68437
G1 X88.672 Y110.594 E5.71065
G1 X88.193 Y109.966 E5.73692
G1 X87.649 Y109.044 E5.77253
G1 X87.186 Y108.027 E5.8097
G1 X86.943 Y107.275 E5.83598
G1 X86.778 Y106.503 E5.86224
G1 X86.709 Y105.95 E5.88077
G1 X86.649 Y104.811 E5.91871
G1 X86.699 Y104.023 E5.94497
G1 X86.828 Y103.244 E5.97123
G1 X87.052 Y102.409 E5.99999
G1 X87.307 Y101.662 E6.02624
G1 X87.638 Y100.944 E6.05254
G1 X88.039 Y100.264 E6.07879
G1 X88.614 Y99.499 E6.11062
G1 X89.353 Y98.694 E6.14697
G0 F3600 X89.644 Y98.969
G1 F1800 X90.228 Y98.468 E6.17256
G1 X90.861 Y98.031 E6.19814
G1 X91.536 Y97.662 E6.22373
G1 X92.217 Y97.375 E6.24831
G1 X93.184 Y97.066 E6.28208
G1 X93.939 Y96.918 E6.30766
G1 X94.966 Y96.845 E6.34191
G1 X95.612 Y96.844 E6.36339
G1 X97.516 Y96.815 E6.42673
G1 X99.186 Y96.721 E6.48236
G1 X100.732 Y96.557 E6.53407
G1 X102.189 Y96.302 E6.58327
G1 X102.72 Y96.171 E6.60146
G1 X103.266 Y96.008 E6.62041
G1 X103.753 Y95.83 E6.63766
G1 X104.228 Y95.62 E6.65493
G1 X104.687 Y95.382 E6.67213
G1 X105.153 Y95.103 E6.69019
G1 X105.632 Y94.779 E6.70942
G1 X106.004 Y94.493 E6.72503
G1 X108.775 Y92.012 E6.84874
G1 X109.854 Y91.128 E6.89513
G1 X111.058 Y90.255 E6.9446
G1 X112.285 Y89.472 E6.99301
G1 X113.513 Y88.777 E7.03994
G1 X114.765 Y88.151 E7.0865
G1 X116.033 Y87.593 E7.13257
G1 X117.438 Y87.073 E7.1824
G1 X118.88 Y86.642 E7.23246
G1 X120.34 Y86.305 E7.2823
G1 X121.811 Y86.06 E7.3319
G1 X123.285 Y85.908 E7.38118
G1 X124.754 Y85.846 E7.43008
G1 X126.257 Y85.878 E7.48008
G1 X127.7 Y85.992 E7.52823
G1 X129.187 Y86.202 E7.57818
G1 X129.687 Y86.295 E7.59509
G1 X130.7 Y86.52 E7.62961
G1 X132.151 Y86.926 E7.67972
G1 X133.533 Y87.403 E7.72835
G1 X134.886 Y87.961 E7.77702
G1 X136.189 Y88.588 E7.82512
G1 X137.456 Y89.29 E7.8733
G1 X138.678 Y90.059 E7.92132
G1 X139.857 Y90.898 E7.96945
G1 X140.988 Y91.806 E8.01769
G1 X144.023 Y94.508 E8.15284
G1 X144.838 Y95.095 E8.18625
G1 X145.286 Y95.359 E8.20354
G1 X145.783 Y95.614 E8.22212
G1 X146.256 Y95.822 E8.23931
G1 X146.784 Y96.017 E8.25803
G1 X147.302 Y96.175 E8.27604
G1 X147.834 Y96.306 E8.29426
G1 X149.285 Y96.563 E8.34327
G1 X150.816 Y96.727 E8.39449
G1 X152.457 Y96.815 E8.44914
G1 X155.251 Y96.862 E8.54209
G1 X156.439 Y96.987 E8.58182
G1 X157.188 Y97.159 E8.60738
G1 X157.916 Y97.409 E8.63298
G1 X158.613 Y97.733 E8.65854
G1 X159.274 Y98.127 E8.68414
G1 X159.681 Y98.421 E8.70084
G1 X160.486 Y99.094 E8.73574
G1 X161.013 Y99.654 E8.76131
G1 X161.48 Y100.265 E8.78689
G1 X161.993 Y101.136 E8.82051
G1 X162.448 Y102.135 E8.85702
G1 X162.68 Y102.868 E8.88259
G1 X162.836 Y103.621 E8.90817
G1 X162.923 Y104.436 E8.93543
G1 X162.951 Y105.205 E8.96103
G1 X162.899 Y105.972 E8.98659
G1 X162.717 Y106.939 E9.01932
G1 X162.407 Y107.979 E9.05542
G1 X162.102 Y108.684 E9.08096
G1 X161.724 Y109.355 E9.10658
G1 X161.32 Y109.939 E9.1302
G1 X160.841 Y110.541 E9.15579
G1 X160.301 Y111.089 E9.18138
G1 X159.708 Y111.578 E9.20694
G1 X158.906 Y112.095 E9.23868
G1 X158.015 Y112.546 E9.27189
G1 X157.293 Y112.812 E9.29748
G1 X156.547 Y113.001 E9.32308
G1 X155.786 Y113.111 E9.34865
G1 X155.277 Y113.141 E9.36561
G1 X154.766 Y113.153 E9.38261
G1 X152.459 Y113.184 E9.45935
G1 X150.82 Y113.272 E9.51394
G1 X149.287 Y113.436 E9.56522
G1 X147.839 Y113.693 E9.61413
G1 X147.302 Y113.825 E9.63253
G1 X146.777 Y113.985 E9.65078
G1 X146.274 Y114.171 E9.66862
G1 X145.765 Y114.395 E9.68711
G1 X145.293 Y114.636 E9.70474
G1 X144.837 Y114.906 E9.72237
G1 X144.398 Y115.201 E9.73996
G1 X144.008 Y115.503 E9.75636
G1 X141.227 Y117.989 E9.88043
G1 X140.186 Y118.849 E9.92534
G1 X139.008 Y119.716 E9.97399
G1 X137.795 Y120.506 E10.02214
G1 X136.557 Y121.218 E10.06964
G1 X135.256 Y121.87 E10.11804
G1 X133.929 Y122.443 E10.16611
G1 X132.551 Y122.945 E10.21489
G1 X131.15 Y123.364 E10.26353
G1 X129.677 Y123.706 E10.31382
G1 X129.184 Y123.798 E10.3305
G1 X128.159 Y123.953 E10.36498
G1 X126.67 Y124.098 E10.41474
G1 X125.231 Y124.154 E10.46264
G1 X123.751 Y124.124 E10.51187
G1 X122.287 Y124.005 E10.56073
G1 X120.774 Y123.784 E10.61158
G1 X119.301 Y123.469 E10.66168
G1 X117.861 Y123.064 E10.71144
G1 X116.455 Y122.573 E10.76097
G1 X115.083 Y121.995 E10.81049
G1 X113.817 Y121.378 E10.85733
G1 X112.585 Y120.698 E10.90413
G1 X111.391 Y119.956 E10.95089
G1 X110.216 Y119.135 E10.99856
G1 X109.078 Y118.238 E11.04676
G1 X106.004 Y115.507 E11.18352
G1 X105.148 Y114.894 E11.21854
G1 X104.691 Y114.621 E11.23625
G1 X104.202 Y114.367 E11.25457
G1 X103.265 Y113.992 E11.28814
G1 X102.722 Y113.829 E11.307
G1 X102.184 Y113.697 E11.32542
G1 X100.728 Y113.441 E11.37459
G1 X99.199 Y113.279 E11.42573
G1 X97.516 Y113.185 E11.48179
G1 X95.743 Y113.158 E11.54077
G1 X95.084 Y113.156 E11.56269
G1 X94.15 Y113.094 E11.59382
G1 X93.125 Y112.92 E11.6284
G1 X92.387 Y112.704 E11.65398
G1 X91.675 Y112.412 E11.67957
G1 X90.998 Y112.048 E11.70514
G1 X90.264 Y111.54 E11.73483
G1 X89.475 Y110.869 E11.76928
G1 X88.951 Y110.305 E11.79488
G1 X88.489 Y109.691 E11.82044
G1 X88.007 Y108.865 E11.85225
G1 X87.552 Y107.866 E11.88876
G1 X87.32 Y107.133 E11.91433
G1 X87.164 Y106.38 E11.93991
G1 X87.077 Y105.565 E11.96717
G1 X87.049 Y104.796 E11.99276
G1 X87.101 Y104.029 E12.01833
G1 X87.232 Y103.271 E12.04392
G1 X87.436 Y102.519 E12.06983
G1 X87.686 Y101.792 E12.0954
G1 X88.011 Y101.094 E12.12101
G1 X88.406 Y100.434 E12.14659
G1 X88.918 Y99.758 E12.1748
G1 X89.644 Y98.969 E12.21046
G0 F3600 X89.935 Y99.244
G1 F1800 X90.505 Y98.76 E12.23533
G1 X91.124 Y98.339 E12.26023
G1 X91.783 Y97.987 E12.28508
G1 X92.354 Y97.75 E12.30564
G1 X93.3 Y97.449 E12.33866
G1 X94.035 Y97.309 E12.36355
G1 X94.967 Y97.245 E12.39462
G1 X95.619 Y97.244 E12.4163
G1 X97.544 Y97.214 E12.48034
G1 X99.213 Y97.121 E12.53593
G1 X100.783 Y96.954 E12.58845
G1 X102.278 Y96.692 E12.63893
G1 X102.815 Y96.56 E12.65732
G1 X103.402 Y96.384 E12.6777
G1 X103.899 Y96.203 E12.6953
G1 X104.396 Y95.984 E12.71336
G1 X104.878 Y95.733 E12.73143
G1 X105.369 Y95.439 E12.75047
G1 X105.862 Y95.105 E12.77027
G1 X106.266 Y94.796 E12.78719
G1 X109.042 Y92.31 E12.91113
G1 X110.105 Y91.439 E12.95684
G1 X111.29 Y90.581 E13.0055
G1 X112.497 Y89.811 E13.05312
G1 X113.707 Y89.127 E13.09935
G1 X114.941 Y88.51 E13.14524
G1 X116.192 Y87.96 E13.19069
G1 X117.573 Y87.449 E13.23967
G1 X118.99 Y87.026 E13.28885
G1 X120.426 Y86.695 E13.33786
G1 X121.873 Y86.456 E13.38664
G1 X123.323 Y86.307 E13.43512
G1 X124.768 Y86.246 E13.48323
G1 X126.244 Y86.277 E13.53233
G1 X127.665 Y86.391 E13.57975
G1 X129.128 Y86.598 E13.62889
G1 X130.613 Y86.911 E13.67937
G1 X132.039 Y87.31 E13.72862
G1 X133.399 Y87.78 E13.77648
G1 X134.73 Y88.33 E13.82438
G1 X136.013 Y88.947 E13.87173
G1 X137.26 Y89.638 E13.91914
G1 X138.462 Y90.395 E13.96639
G1 X139.623 Y91.222 E14.0138
G1 X140.735 Y92.115 E14.06124
G1 X143.772 Y94.82 E14.1965
G1 X144.616 Y95.428 E14.2311
G1 X145.098 Y95.713 E14.24972
G1 X145.604 Y95.972 E14.26863
G1 X146.116 Y96.197 E14.28723
G1 X146.635 Y96.389 E14.30564
G1 X147.217 Y96.567 E14.32588
G1 X147.747 Y96.697 E14.34403
G1 X149.229 Y96.96 E14.39409
G1 X150.771 Y97.125 E14.44567
G1 X152.457 Y97.215 E14.50183
G1 X155.223 Y97.261 E14.59384
G1 X156.389 Y97.384 E14.63284
G1 X157.118 Y97.555 E14.65774
G1 X157.823 Y97.803 E14.6826
G1 X158.499 Y98.125 E14.7075
G1 X159.437 Y98.738 E14.74477
G1 X160.224 Y99.398 E14.77893
G1 X160.735 Y99.944 E14.8038
G1 X161.185 Y100.542 E14.8287
G1 X161.635 Y101.315 E14.85845
G1 X162.08 Y102.295 E14.89424
G1 X162.304 Y103.008 E14.9191
G1 X162.45 Y103.742 E14.94399
G1 X162.525 Y104.471 E14.96837
G1 X162.551 Y105.219 E14.99326
G1 X162.497 Y105.965 E15.01814
G1 X162.33 Y106.839 E15.04773
G1 X162.025 Y107.858 E15.08311
G1 X161.725 Y108.543 E15.10798
G1 X161.164 Y109.471 E15.14405
G1 X160.528 Y110.291 E15.17857
G1 X160.001 Y110.821 E15.20342
G1 X159.42 Y111.293 E15.22832
G1 X158.711 Y111.746 E15.25631
G1 X157.838 Y112.186 E15.28882
G1 X157.135 Y112.442 E15.31371
G1 X156.409 Y112.62 E15.33857
G1 X155.667 Y112.72 E15.36347
G1 X154.756 Y112.753 E15.39379
G1 X152.458 Y112.784 E15.47023
G1 X150.775 Y112.874 E15.52628
G1 X149.234 Y113.039 E15.57783
G1 X147.75 Y113.303 E15.62796
G1 X147.212 Y113.434 E15.64638
G1 X146.648 Y113.606 E15.66599
G1 X146.114 Y113.804 E15.68494
G1 X145.6 Y114.03 E15.70361
G1 X145.106 Y114.283 E15.72207
G1 X144.616 Y114.573 E15.74101
G1 X144.155 Y114.883 E15.75949
G1 X143.765 Y115.185 E15.77589
G1 X140.961 Y117.691 E15.90097
G1 X139.933 Y118.539 E15.94529
G1 X138.774 Y119.391 E15.99314
G1 X137.579 Y120.169 E16.04056
G1 X136.361 Y120.869 E16.08729
G1 X135.08 Y121.511 E16.13495
G1 X133.774 Y122.075 E16.18226
G1 X132.418 Y122.568 E16.23025
G1 X131.039 Y122.98 E16.27812
G1 X129.591 Y123.316 E16.32756
G1 X128.1 Y123.557 E16.3778
G1 X126.636 Y123.699 E16.42672
G1 X125.218 Y123.755 E16.47392
G1 X123.763 Y123.724 E16.52232
G1 X122.323 Y123.607 E16.57037
G1 X120.837 Y123.388 E16.62033
G1 X119.389 Y123.078 E16.66958
G1 X117.973 Y122.68 E16.7185
G1 X116.591 Y122.197 E16.7672
G1 X115.242 Y121.628 E16.81589
G1 X113.994 Y121.02 E16.86207
G1 X112.78 Y120.349 E16.9082
G1 X111.604 Y119.618 E16.95425
G1 X110.448 Y118.809 E17.00118
G1 X109.328 Y117.926 E17.04862
G1 X106.266 Y115.204 E17.18489
G1 X105.861 Y114.894 E17.20185
G1 X105.36 Y114.554 E17.22199
G1 X104.888 Y114.272 E17.24027
G1 X104.395 Y114.016 E17.25875
G1 X103.905 Y113.799 E17.27657
G1 X103.396 Y113.614 E17.29459
G1 X102.818 Y113.44 E17.31466
G1 X102.272 Y113.307 E17.33335
G1 X100.781 Y113.044 E17.38371
G1 X99.223 Y112.879 E17.43582
G1 X97.544 Y112.786 E17.49175
G1 X95.75 Y112.758 E17.55143
G1 X95.085 Y112.756 E17.57354
G1 X94.202 Y112.697 E17.60298
G1 X93.197 Y112.526 E17.63688
G1 X92.48 Y112.313 E17.66176
G1 X91.79 Y112.024 E17.68664
G1 X91.135 Y111.663 E17.71152
G1 X90.511 Y111.225 E17.73688
G1 X89.739 Y110.567 E17.77061
G1 X89.232 Y110.017 E17.79549
G1 X88.786 Y109.416 E17.82039
G1 X88.365 Y108.686 E17.84841
G1 X87.92 Y107.706 E17.88421
G1 X87.696 Y106.993 E17.90907
G1 X87.55 Y106.259 E17.93396
G1 X87.475 Y105.53 E17.95833
G1 X87.449 Y104.782 E17.98323
G1 X87.503 Y104.036 E18.00811
G1 X87.72 Y102.981 E18.04393
G1 X88.065 Y101.922 E18.08097
G1 X88.383 Y101.246 E18.10582
G1 X88.772 Y100.606 E18.13073
G1 X89.223 Y100.018 E18.15538
G1 X89.935 Y99.244 E18.19036
G0 F3600 X90.225 Y99.52
G1 F1800 X90.781 Y99.053 E18.21451
G1 X91.385 Y98.649 E18.23868
G1 X92.029 Y98.314 E18.26282
G1 X92.721 Y98.042 E18.28755
G1 X93.417 Y97.832 E18.31173
G1 X94.131 Y97.699 E18.33589
G1 X94.967 Y97.645 E18.36375
G1 X95.627 Y97.644 E18.3857
G1 X97.547 Y97.614 E18.44957
G1 X99.257 Y97.519 E18.50653
G1 X100.836 Y97.351 E18.55935
G1 X102.356 Y97.085 E18.61067
G1 X102.924 Y96.945 E18.63013
G1 X103.533 Y96.762 E18.65128
G1 X104.044 Y96.576 E18.66936
G1 X104.563 Y96.347 E18.68823
G1 X105.075 Y96.081 E18.70742
G1 X105.594 Y95.771 E18.72753
G1 X106.105 Y95.424 E18.74807
G1 X106.515 Y95.11 E18.76525
G1 X109.309 Y92.608 E18.88999
G1 X110.357 Y91.75 E18.93504
G1 X111.521 Y90.907 E18.98284
G1 X112.709 Y90.15 E19.02969
G1 X113.901 Y89.476 E19.07524
G1 X115.118 Y88.869 E19.12047
G1 X116.351 Y88.327 E19.16527
